src/img/git-icon.svg

<svg width="15px" height="15px" viewBox="0 0 15 15" fill="none" xmlns="http://www.w3.org/2000/svg">
<path d="M6.43943 0.853525C7.02522 0.267739 7.97497 0.267737 8.56075 0.853524L14.1465 6.43931C14.7323 7.0251 14.7323 7.97484 14.1465 8.56063L8.56075 14.1464C7.97497 14.7322 7.02522 14.7322 6.43943 14.1464L0.853647 8.56063C0.267861 7.97485 0.267859 7.0251 0.853646 6.43931L4.79293 2.50003L6.14619 3.85329C6.05248 4.04911 6 4.26843 6 4.5C6 5.15311 6.4174 5.70873 7 5.91465V9.08535C6.4174 9.29127 6 9.84689 6 10.5C6 11.3284 6.67157 12 7.5 12C8.32843 12 9 11.3284 9 10.5C9 9.84689 8.5826 9.29127 8 9.08535V5.91465C8.05018 5.89691 8.09914 5.87658 8.14671 5.85381L9.14618 6.85329C9.05248 7.04911 9 7.26843 9 7.5C9 8.32843 9.67157 9 10.5 9C11.3284 9 12 8.32843 12 7.5C12 6.67157 11.3284 6 10.5 6C10.2684 6 10.0491 6.05248 9.85329 6.14619L8.85382 5.14671C8.94752 4.95089 9 4.73157 9 4.5C9 3.67157 8.32843 3 7.5 3C7.26843 3 7.04911 3.05248 6.85329 3.14619L5.50003 1.79293L6.43943 0.853525Z" fill="currentColor"/>
</svg>

<svg xmlns="http://www.w3.org/2000/svg" fill="none" viewBox="0 0 15 15">
  <path fill="currentColor" d="M6.44.85a1.5 1.5 0 0 1 2.12 0l5.59 5.59a1.5 1.5 0 0 1 0 2.12l-5.59 5.59a1.5 1.5 0 0 1-2.12 0L.85 8.56a1.5 1.5 0 0 1 0-2.12L4.8 2.5l1.36 1.35A1.5 1.5 0 0 0 7 5.91V9.1a1.5 1.5 0 1 0 1 0V5.9l.15-.06 1 1a1.5 1.5 0 1 0 .7-.7l-1-1a1.5 1.5 0 0 0-2-2L5.5 1.79l.94-.94Z"/>
</svg>
